X: 9460
T: Danzig Willie
R: slip jig
M: 9/8
K: Gmajor
G2A|:BcB G2B c2e|d3 d2e d2c|BcB G2B c2B|A2F D3 G2A|
BcB G2B c2e|d3 d2e d2c|BcB G2B A2F|1 G6 G2A:|2 G6 g2f||
|:e3 c2e d2c|d3 G2B c2B|A3 D2F A2c|c2B A2G g2f|
ege c2e d2c|d3 G2B c2B|ABA D2F A2F|1 G3 g3 f3:|2 G8z||

